X:1
T:Canarsie, 87.87 D
T:Canarsie, 87.87 D
T:Traditional Tune
T:Public Domain Courtesy of the Cyber Hymnal™
C:Traditional Tune
Z:Public Domain
Z:Courtesy of the Cyber Hymnal™
%%score ( 1 2 ) ( 3 4 )
L:1/8
Q:1/4=105
M:6/8
K:F
V:1 treble 
V:2 treble 
V:3 bass 
V:4 bass 
V:1
 [FA] | [Ad]2 [Ae] [Af]2 [G^c] | [Fd]2 [Gd] A2 [GB] | A2 [DG] [DF]2 [^CE] | D3 D z [FA] | %5
 [Ad]2 [Ae] [Af]2 [G^c] | [Fd]2 [Gd] A2 [GB] | A2 [DG] [DF]2 [^CE] | D3 D z [DF] | %9
 [DE]2 [DF] [DG]2 [^CA] | [DF]2 [DF] [^CE]2 [CF] | D2 [DE] [DF]2 [DG] | [EA]3 [EA] z [E^G] | %13
 [EA]2 [E=B] [A^c]2 A | [Ad]2 [Ad] !fermata![A^c]2 [Af] | [Ge]2 [Gd] [^A^c]2 [Ge] | [Fd]3 [Fd]2 |] %17
V:2
 x | x6 | x3 A2 x | A2 x4 | D3 D x2 | x6 | x3 A2 x | A2 x4 | D3 D x2 | x6 | x6 | x6 | x6 | x5 A | %14
 x6 | x6 | x5 |] %17
V:3
 [B,,D] | [F,D]2 [A,^C] D2 [A,E] | [B,D]2 [B,D] [F,D]2 [G,D] | [F,D]2 [G,B,] A,2 [A,,G,] | %4
 [D,F,]3 [D,F,] z [D,D] | [F,D]2 [A,^C] D2 [A,E] | [B,D]2 [B,D] [F,D]2 [G,D] | %7
 [F,D]2 [G,B,] A,2 [A,,G,] | [D,F,]3 [D,F,] z [D,A,] | [G,B,]2 [F,A,] [E,B,]2 [A,,A,] | %10
 [D,A,]2 [D,A,] [A,,A,]2 [A,,G,] | [B,,F,]2 [B,,E,] [B,,D,]2 [B,,D] | [A,,D]3 [A,,^C] z [E,=B,] | %13
 [A,^C]2 [A,D] [A,E]2 [G,C] | [F,D]2 [D,F] [A,E]2 D | [G,B,]2 [B,D] [A,E]2 [=C,^C] | %16
 [D,A,D]3 [D,A,D]2 |] %17
V:4
 x | x3 D2 x | x6 | x3 A,2 x | x6 | x3 D2 x | x6 | x3 A,2 x | x6 | x6 | x6 | x6 | x6 | x6 | x5 D | %15
 x6 | x5 |] %17

